assets/media/flags/fi.svg

<svg viewBox="0 0 500 500" xmlns="http://www.w3.org/2000/svg" xmlns:xlink="http://www.w3.org/1999/xlink"><mask id="a" fill="#fff"><path d="m250 0c-138.072 0-250 111.928-250 250s111.928 250 250 250 250-111.928 250-250-111.928-250-250-250z" fill="#fff" fill-rule="evenodd"/></mask><g fill="none" fill-rule="evenodd"><path d="m-159.092 500h818.182v-500h-818.182z" fill="#fff" mask="url(#a)"/><path d="m68.182 181.818v-181.818h136.363v181.818h454.545v136.364h-454.545v181.818h-136.363v-181.818h-227.274v-136.364z" fill="#002f6c" mask="url(#a)"/></g></svg>

<svg xmlns="http://www.w3.org/2000/svg" xmlns:xlink="http://www.w3.org/1999/xlink" viewBox="0 0 500 500">
  <defs>
    <path id="fi-a" d="M250 0C111.928 0 0 111.928 0 250s111.928 250 250 250 250-111.928 250-250S388.072 0 250 0z"/>
  </defs>
  <g fill="none" fill-rule="evenodd">
    <mask id="fi-b" fill="#fff">
      <use xlink:href="#fi-a"/>
    </mask>
    <path fill="#FFF" d="M-159.092 500H659.09V0h-818.182z" mask="url(#fi-b)"/>
    <path fill="#002F6C" d="M68.182 181.818V0h136.363v181.818H659.09v136.364H204.545V500H68.182V318.182h-227.274V181.818H68.182z" mask="url(#fi-b)"/>
  </g>
</svg>
